X:38
T: Ritter und Magd
N: Q0055k
O: Mitteleuropa, Deutschland (BRD) , Hessen
N: Vorder- und Nachsatz in verschiedenen Tonarten.
R: Ballade, Betrug, Schwangerschaft, Tod, Selbstmord, Herr und Magd
M: 6/8
L: 1/16
K: G
D2 | D2G2G2G2F2E2 | E2D2D2D4
D2 | D2G2G2G2A2B2 | B6A4
G2 | A2A2A2d2^c2B2 | A4A2F4
A2 | A3GG2G2A2B2 | B6A2z2
G2 | A2A2A2d2^c2B2 | A4A2F4
A2 | A3GG2G2A2B2 | B6A2z2

